!!! OTL: Mo\, LI\, Hua- (Jasmine)
!!! YEC: Copyright 2001, Chia-wei Lee
!! FOr Voice Only
!! [Allegretto]
**kern	**silbe
*clefG2	*LXhinhua
*F:	*ping-ying
*M2/4	*
=8	=8
(16a	Hau^
16g)	|
16a	Yi-
16cc	Duo^
(16dd	Mo\
16cc)	|
(16ff	Li\
16dd)	|
=9	=9
(16cc	Hua-
16a	|
4cc	|
8dd)	|
=10	=10
8ff	Hau^
16gg	Yi
16aa	Duo^
(16gg	Mo\
16ff)	|
(16dd	Li\
16ff)	|
=11	=11
2cc	Hua-
=12	=12
(16cc	Man^
16a)	|
(4cc	Yuan/
8dd)	|
=13	=13
(8ff	Hua-
16gg	|
16aa)	|
(16gg	Cao^
16ff	|
8dd)	|
=14	=14
8cc	Xiang-
8g	Yie^
(16a	Xiang-
16cc)	|
16a	Bu\
16g	Guo\
=15	=15
(16f	Ta-
16d)	|
4.f	|
*-	*-
